ui/StatusQ/src/assets/img/icons/tiny/arrow-down.svg

<svg fill="none" height="17" viewBox="0 0 16 17" width="16" xmlns="http://www.w3.org/2000/svg"><path d="m8.875 3.5c0-.48325-.39175-.875-.875-.875s-.875.39175-.875.875v8.0976l-2.05554-1.76193c-.36691-.3145-.9193-.27201-1.23379.0949-.3145.36693-.27201.91933.0949 1.23383l3.49655 2.997c.14319.1241.32709.2025.52899.2125.03004.0015.06014.0015.09017-.0001.19279-.01.36907-.0825.509-.1975.00476-.0039.00948-.0079.01418-.0119l3.50004-3c.3669-.3145.4094-.8669.0949-1.23383-.3145-.36691-.8669-.4094-1.2338-.0949l-2.0556 1.76193z" fill="#000"/></svg>

<svg width="16" height="17" viewBox="0 0 16 17" fill="none" xmlns="http://www.w3.org/2000/svg">
<path d="M8.875 3.5C8.875 3.01675 8.48325 2.625 8 2.625C7.51675 2.625 7.125 3.01675 7.125 3.5V11.5976L5.06946 9.83567C4.70255 9.52117 4.15016 9.56366 3.83567 9.93057C3.52117 10.2975 3.56366 10.8499 3.93057 11.1644L7.42712 14.1614C7.57031 14.2855 7.75421 14.3639 7.95611 14.3739C7.98615 14.3754 8.01625 14.3754 8.04628 14.3738C8.23907 14.3638 8.41535 14.2913 8.55528 14.1763C8.56004 14.1724 8.56476 14.1684 8.56946 14.1644L12.0695 11.1644C12.4364 10.8499 12.4789 10.2975 12.1644 9.93057C11.8499 9.56366 11.2975 9.52117 10.9306 9.83567L8.875 11.5976V3.5Z" fill="black"/>
</svg>
